X:510
T:I'll make you fain to follow me
A:Wyresdale, Lancashire
B:H.S.J. Jackson, 1823
L:1/8
M:6/8
N:last bar of 1st part guessed - misaligned photocopy. There are also some extra bars that might be some of a 3rd part
O:England
Z:Richard Robinson 
%%TranscriptionNotes:Some guesswork here owing to imperfect legibility
%%TUNEURL: http://www.leeds.ac.uk/music/Info/RRTuneBk/gettune/00000e36.html
%%ID:00000e36
K:C
C |\
EGA c2e | dDD D2C | EGA cdc | BAB cGE | \
FdF EcE | dDD D2C | EGA c2G | ECC C2 ::
g | \
ega gec | f>ge d2c | ega gec | faf gec | \
fea gec | (e/f/)ge d2D | EGA c2G | ECC C2 |]
% the next line contains this, which looks like the end of a 3rd part,
% but I can't find a beginning for it.
% e2dgf | e2c e/f/gd | ecc c2 |]
